docs/.gitbook/assets/icon-blank-document-16@dark.svg

<svg width="32" height="32" viewBox="0 0 16 16" fill="none" xmlns="http://www.w3.org/2000/svg">
<rect x="0" y="0" width="16" height="16" fill="#181c1f"/>
<path fill-rule="evenodd" clip-rule="evenodd" d="M4.75 2.5C4.05964 2.5 3.5 3.05964 3.5 3.75V12.25C3.5 12.9404 4.05964 13.5 4.75 13.5H11.25C11.9404 13.5 12.5 12.9404 12.5 12.25V7H9.75C8.7835 7 8 6.2165 8 5.25V2.5H4.75ZM9.5 3.31066V5.25C9.5 5.38807 9.61193 5.5 9.75 5.5H11.6893L9.5 3.31066ZM2 3.75C2 2.23122 3.23122 1 4.75 1H8.58579C9.04992 1 9.49503 1.18437 9.82322 1.51256L13.4874 5.17678C13.8156 5.50496 14 5.95008 14 6.41421V12.25C14 13.7688 12.7688 15 11.25 15H4.75C3.23122 15 2 13.7688 2 12.25V3.75Z" fill="#fff"/>
</svg>

<svg xmlns="http://www.w3.org/2000/svg" width="32" height="32" fill="none" viewBox="0 0 16 16"><path fill="#181c1f" d="M0 0h16v16H0z"/><path fill="#fff" fill-rule="evenodd" d="M4.75 2.5c-.69 0-1.25.56-1.25 1.25v8.5c0 .69.56 1.25 1.25 1.25h6.5c.69 0 1.25-.56 1.25-1.25V7H9.75A1.75 1.75 0 0 1 8 5.25V2.5zm4.75.81v1.94c0 .138.112.25.25.25h1.94zM2 3.75A2.75 2.75 0 0 1 4.75 1h3.836c.464 0 .909.184 1.237.513l3.664 3.664c.329.328.513.773.513 1.237v5.836A2.75 2.75 0 0 1 11.25 15h-6.5A2.75 2.75 0 0 1 2 12.25z" clip-rule="evenodd"/></svg>
